X: 9852
T: Derby Hunt, The
R: slip jig
M: 9/8
K: Dmajor
|:d2 d ded c2 A|dAd def g2 e|d2 d ded c2 A|Bcd ABG F2 D:|
|:G2 B Bcd Bcd|F2 A AFD AFD|G2 B Bcd Bcd|cde efe c2 A:|

